X:1
T:Devotion (Browne), 12.11.12.11.12
T:Devotion (Browne), 12.11.12.11.12
T:E. C. L. Browne, 1868
T:Public Domain Courtesy of the Cyber Hymnal™
C:E. C. L. Browne, 1868
Z:Public Domain
Z:Courtesy of the Cyber Hymnal™
%%score ( 1 2 ) ( 3 4 )
L:1/8
Q:1/4=118
M:3/4
K:F
V:1 treble 
V:2 treble 
V:3 bass 
V:4 bass 
V:1
 F2 | [Ac]2 [GB]2 [FA]2 | [GB]2 [FA]2 [EG]2 | [FA]2 [Ac]3 [FA] | [FA]2 [EG]2 [Fc]2 | %5
 ([Fd]3 e) (fd) | [Fd]2 [Fc]2 [FA]2 | [GB]3 [Ac] ([Bd][GB]) | B2 A2 [FA]2 | [EG]2 [FA]2 [GB]2 | %10
 [FA]2 [EG]2 F2 | [EG]2 [GB]3 [EG] | [EG]2 F2 F2 | [EG]2 [FA]2 [GB]2 | (d2 c2) FG | %15
 ([FA][GB]) [FA]2 [EG]2 | F4 z2 | [Fd]6 | [Ec]6 | [GB]2 [Ac]2 [GB]2 | [FA]4 z2 | [GB]6 | [FA]6 | %23
 [EG]2 [FA]2 [EG]2 | F4 |] %25
V:2
 F2 | x6 | x6 | x6 | x6 | x3 e F2 | x6 | x6 | F4 x2 | x6 | x4 F2 | x6 | x2 F2 F2 | x6 | F4 F2 | %15
 x6 | F4 x2 | x6 | x6 | x6 | x6 | x6 | x6 | x6 | F4 |] %25
V:3
 F,2 | [F,C]2 [F,C]2 [F,C]2 | [C,C]2 [C,C]2 [C,C]2 | [F,C]2 [F,C]3 [F,C] | [C,C]2 [C,C]2 [F,A,]2 | %5
 ([B,,B,]3 [B,,C]) (DB,) | [F,B,]2 [F,A,]2 [F,C]2 | [C,G,]3 [C,G,] [C,G,]2 | D2 C2 [F,C]2 | %9
 [C,C]2 [C,C]2 [C,C]2 | [F,C]2 [F,C]2 [F,C]2 | [C,C]2 [C,C]3 [C,C] | [C,B,]2 [F,A,]2 [F,C]2 | %13
 [C,B,]2 [C,A,]2 [C,G,]2 | ([B,,B,]2 [F,A,]2) [F,C][F,C] | [F,C]2 [C,C]2 [C,B,]2 | [F,A,]4 z2 | %17
 [B,,B,]6 | [C,G,]6 | [C,C]2 [C,C]2 [C,C]2 | [F,C]4 z2 | [C,C]6 | [F,C]6 | [C,C]2 [C,C]2 (CB,) | %24
 [F,A,]4 |] %25
V:4
 F,2 | x6 | x6 | x6 | x6 | x4 B,,2 | x6 | x6 | F,4 x2 | x6 | x6 | x6 | x6 | x6 | x6 | x6 | x6 | %17
 x6 | x6 | x6 | x6 | x6 | x6 | x4 C,2 | x4 |] %25

